logo/logo.svg

<svg width="391" height="270" viewBox="0 0 391 270" fill="none" xmlns="http://www.w3.org/2000/svg">
<path d="M96.0001 150L96.0001 118H56.0001L96.0001 150Z" fill="#9CC154"/>
<rect x="72.0001" y="59" width="72" height="59" fill="#9CC154"/>
<rect x="72.0001" width="72" height="59" fill="#55A277"/>
<rect x="6.10352e-05" width="72" height="59" fill="#53A8DB"/>
<path d="M355.5 199L367.5 203C367.5 203 358.997 214.5 348.5 228.5C340 238.5 337.185 246.211 336 245.5C336.189 241.539 338 236.5 345 222C345 222 353.5 203.5 355.5 199Z" fill="#983517"/>
<path d="M116 200L104 204C104 204 112.503 215.5 123 229.5C131.5 239.5 134.315 247.211 135.5 246.5C135.311 242.539 133.5 237.5 126.5 223C126.5 223 118 204.5 116 200Z" fill="#983517"/>
<path d="M371.5 193C371.5 193 313.5 232.5 236.5 232.5C159.5 232.5 106 208.5 96 193C86 177.5 371.5 193 371.5 193Z" fill="#983517"/>
<path d="M237.758 261.572C239.258 263.372 248.658 268.372 252.258 269.272C253.958 269.772 258.458 269.872 262.158 269.672C272.758 269.072 281.558 264.472 295.258 252.272C299.058 248.972 306.658 243.472 312.258 240.072C319.658 235.572 325.058 231.172 332.358 223.872C335.695 220.474 345.813 206.368 350 205.172C350 205.172 354.642 200.828 362.5 203C370.358 205.172 367.858 208.472 367.858 210.272C367.858 214.172 364.758 224.172 359.658 236.672C348.358 264.172 345.958 274.072 353.258 262.672C355.358 259.372 363.058 248.172 370.358 237.672C384.058 218.072 389.258 209.472 390.158 205.172C390.558 202.972 389.158 201.572 376.558 192.172C368.758 186.372 362.258 180.972 362.058 180.172C361.958 179.272 363.858 175.472 366.258 171.672C368.758 167.772 370.858 163.872 370.858 162.972C370.858 160.872 368.558 159.572 363.358 158.672C353.758 157.072 351.858 156.172 351.858 153.772C351.858 152.472 352.958 148.372 354.358 144.672C357.758 135.672 357.458 133.872 352.358 132.972C350.158 132.572 345.758 132.272 342.558 132.272C338.458 132.172 336.658 131.772 336.258 130.672C335.958 129.872 336.458 125.672 337.358 121.272C339.758 110.372 339.358 109.672 331.558 110.672C328.158 111.072 323.558 111.472 321.358 111.572L317.358 111.672L316.558 102.672C316.158 97.7719 315.558 93.0719 315.358 92.2719C314.658 90.5719 310.358 91.2719 302.158 94.2719C297.858 95.9719 295.658 96.3719 294.858 95.5719C294.258 94.9719 293.158 90.9719 292.358 86.6719C290.858 78.8719 289.558 76.1719 287.458 76.1719C286.858 76.1719 283.358 78.1719 279.658 80.6719C275.958 83.1719 272.058 85.1719 271.058 85.1719C269.658 85.1719 268.458 83.6719 266.958 80.2719C265.858 77.5719 264.858 74.9719 264.858 74.4719C264.858 74.0719 263.958 72.1719 262.858 70.3719C260.958 67.2719 260.758 67.1719 258.058 68.5719C256.558 69.3719 253.358 72.0719 250.858 74.5719C244.658 80.9719 242.858 80.7719 237.758 72.6719C232.258 63.9719 230.858 63.2719 227.158 67.5719C225.658 69.4719 223.158 72.8719 221.658 75.0719C219.958 77.5719 218.058 79.1719 216.958 79.1719C215.858 79.1719 212.258 76.6719 209.058 73.6719C200.558 65.8719 199.758 66.0719 195.058 77.7719C191.758 86.1719 190.158 86.6719 183.258 81.6719C174.958 75.7719 173.958 75.3719 171.758 77.9719C170.758 79.2719 169.658 82.3719 169.358 84.9719C168.958 87.5719 168.258 91.1719 167.658 92.9719C166.458 96.9719 163.8 94.6 156 91C151.9 89.1 148 86.5 145.5 88C143 89.5 145.215 103.844 143.858 107.672C142.5 111.5 123.648 105.79 122.5 110C121 115.5 128 129 124.358 131.672C121.513 133.759 105.688 130 103.5 133.5C101.313 137 110.5 148.228 109.5 152.5C108.5 156.772 102.858 157.472 99.8577 158.072C88.9577 160.372 88.1577 162.272 94.4577 171.672C96.3577 174.372 97.8577 176.972 97.8577 177.372C97.8577 179.172 95.0577 177.872 89.7577 173.772C84.1577 169.372 79.8577 164.672 79.8577 162.972C79.8577 162.472 81.7577 159.672 84.1577 156.772C86.4577 153.972 89.0577 150.472 90.0577 149.172C91.4577 147.072 96.5001 143.5 95.0001 126.5C93.7206 112 72.5 99 72.5 99L72.0001 140C72.0001 140 56.0001 130 61.8577 102.672C61.8577 102.672 47.2577 108 44.0001 114C40.7424 120 39.9577 130.772 42.7577 136.872C45.2577 142.172 47.9577 145.572 55.0577 152.572C60.7577 158.072 65.1577 163.372 66.7577 166.572C68.2577 169.672 73.0577 175.472 79.0577 181.572L88.8577 191.372L81.3577 199.372C76.3577 204.672 73.8577 208.172 73.8577 209.672C73.8577 211.172 76.0577 214.472 79.5577 218.372C88.1577 227.872 122.958 263.072 126.158 265.272L128.858 267.272L127.858 264.772C125.958 259.572 122.358 253.372 115.558 243.172C106.658 229.972 98.8577 214.972 98.8577 211.272C98.8577 210.452 103.499 205.207 105.058 204.272C107.058 203.272 108.158 203.372 111.958 204.972C119.958 208.472 144.458 216.072 157.058 219.172C181.258 224.972 205.558 228.172 225.558 228.172H237.058L243.158 222.672C258.658 208.772 273.258 207.572 287.858 219.172C289.958 220.772 292.558 222.172 293.658 222.172C295.458 222.172 315.858 216.572 321.358 214.572C322.558 214.172 321.558 215.772 318.558 218.772C314.058 223.472 306 227.672 306 227.672C306 227.672 296.936 231.172 296.258 231.172C295.958 231.172 293.258 228.472 290.158 225.072C281.258 215.572 273.658 212.472 264.358 214.672C257.458 216.272 252.058 219.772 244.258 227.672C235.358 236.872 235.258 236.772 247.758 236.372C256.958 235.972 270.458 237.272 274.558 238.872C277.158 239.872 275.758 242.172 269.658 247.272C260.858 254.572 253.258 257.772 240.558 259.672C237.558 260.172 236.958 260.572 237.758 261.572Z" fill="#E45928"/>
<path d="M72.0655 130.853V118H56.0001L72.0655 130.853Z" fill="#3D5A8F"/>
<rect x="6.10352e-05" y="59" width="72" height="59" fill="#3D5A8F"/>
<path d="M44.2292 28H29V90H44.2292V40.5L91.2604 90H99.7708H115V28H99.7708V76.5L52.9733 28L44.2292 28Z" fill="white"/>
<path d="M225.747 184C227.724 201.093 217.779 205 207.951 205C198.122 205 188.671 197.674 190.154 184C191.405 172.468 198.122 163 207.951 163C217.779 163 224.414 172.477 225.747 184Z" fill="black"/>
<ellipse cx="203" cy="175.5" rx="9" ry="10.5" fill="white"/>
<path d="M283.747 184C285.724 201.093 275.779 205 265.951 205C256.122 205 246.671 197.674 248.154 184C249.405 172.468 256.122 163 265.951 163C275.779 163 282.414 172.477 283.747 184Z" fill="black"/>
<ellipse cx="261" cy="175.5" rx="9" ry="10.5" fill="white"/>
</svg>

<svg width="391" height="270" fill="none" xmlns="http://www.w3.org/2000/svg">
  <path d="M96.0001 150v-32h-40l40 32zM72.0001 59h72v59h-72z" fill="#9CC154"/>
  <path fill="#55A277" d="M72.0001 0h72v59h-72z"/>
  <path fill="#53A8DB" d="M.0001 0h72v59h-72z"/>
  <path d="M355.5 199l12 4s-8.503 11.5-19 25.5c-8.5 10-11.315 17.711-12.5 17 .189-3.961 2-9 9-23.5 0 0 8.5-18.5 10.5-23zM116 200l-12 4s8.503 11.5 19 25.5c8.5 10 11.315 17.711 12.5 17-.189-3.961-2-9-9-23.5 0 0-8.5-18.5-10.5-23z" fill="#983517"/>
  <path d="M371.5 193s-58 39.5-135 39.5S106 208.5 96 193s275.5 0 275.5 0z" fill="#983517"/>
  <path d="M237.758 261.572c1.5 1.8 10.9 6.8 14.5 7.7 1.7.5 6.2.6 9.9.4 10.6-.6 19.4-5.2 33.1-17.4 3.8-3.3 11.4-8.8 17-12.2 7.4-4.5 12.8-8.9 20.1-16.2 3.337-3.398 13.455-17.504 17.642-18.7 0 0 4.642-4.344 12.5-2.172s5.358 5.472 5.358 7.272c0 3.9-3.1 13.9-8.2 26.4-11.3 27.5-13.7 37.4-6.4 26 2.1-3.3 9.8-14.5 17.1-25 13.7-19.6 18.9-28.2 19.8-32.5.4-2.2-1-3.6-13.6-13-7.8-5.8-14.3-11.2-14.5-12-.1-.9 1.8-4.7 4.2-8.5 2.5-3.9 4.6-7.8 4.6-8.7 0-2.1-2.3-3.4-7.5-4.3-9.6-1.6-11.5-2.5-11.5-4.9 0-1.3 1.1-5.4 2.5-9.1 3.4-9 3.1-10.8-2-11.7-2.2-.4-6.6-.7-9.8-.7-4.1-.1-5.9-.5-6.3-1.6-.3-.8.2-5 1.1-9.4 2.4-10.9 2-11.6-5.8-10.6-3.4.4-8 .8-10.2.9l-4 .1-.8-9c-.4-4.9001-1-9.6001-1.2-10.4001-.7-1.7-5-1-13.2 2-4.3 1.7-6.5 2.1-7.3 1.3-.6-.6-1.7-4.6-2.5-8.9-1.5-7.8-2.8-10.5-4.9-10.5-.6 0-4.1 2-7.8 4.5s-7.6 4.5-8.6 4.5c-1.4 0-2.6-1.5-4.1-4.9-1.1-2.7-2.1-5.3-2.1-5.8 0-.4-.9-2.3-2-4.1-1.9-3.1-2.1-3.2-4.8-1.8-1.5.8-4.7 3.5-7.2 6-6.2 6.4-8 6.2-13.1-1.9-5.5-8.7-6.9-9.4-10.6-5.1-1.5 1.9-4 5.3-5.5 7.5-1.7 2.5-3.6 4.1-4.7 4.1s-4.7-2.5-7.9-5.5c-8.5-7.8-9.3-7.6-14 4.1-3.3 8.4-4.9 8.9-11.8 3.9-8.3-5.9-9.3-6.3-11.5-3.7-1 1.3-2.1 4.4-2.4 7-.4 2.6-1.1 6.2-1.7 8-1.2 4-3.858 1.6281-11.658-1.9719-4.1-1.9-8-4.5-10.5-3s-.285 15.844-1.642 19.672C142.5 111.5 123.648 105.79 122.5 110c-1.5 5.5 5.5 19 1.858 21.672-2.845 2.087-18.67-1.672-20.858 1.828-2.187 3.5 7 14.728 6 19s-6.642 4.972-9.6423 5.572c-10.9 2.3-11.7 4.2-5.4 13.6 1.9 2.7 3.4 5.3 3.4 5.7 0 1.8-2.8.5-8.1-3.6-5.6-4.4-9.9-9.1-9.9-10.8 0-.5 1.9-3.3 4.3-6.2 2.3-2.8 4.9-6.3 5.9-7.6 1.4-2.1 6.4424-5.672 4.9424-22.672C93.7206 112 72.5 99 72.5 99l-.4999 41s-16-10-10.1424-37.328c0 0-14.6 5.328-17.8576 11.328-3.2577 6-4.0424 16.772-1.2424 22.872 2.5 5.3 5.2 8.7 12.3 15.7 5.7 5.5 10.1 10.8 11.7 14 1.5 3.1 6.3 8.9 12.3 15l9.8 9.8-7.5 8c-5 5.3-7.5 8.8-7.5 10.3s2.2 4.8 5.7 8.7c8.6 9.5 43.4003 44.7 46.6003 46.9l2.7 2-1-2.5c-1.9-5.2-5.5-11.4-12.3-21.6-8.9-13.2-16.7003-28.2-16.7003-31.9 0-.82 4.6413-6.065 6.2003-7 2-1 3.1-.9 6.9.7 8 3.5 32.5 11.1 45.1 14.2 24.2 5.8 48.5 9 68.5 9h11.5l6.1-5.5c15.5-13.9 30.1-15.1 44.7-3.5 2.1 1.6 4.7 3 5.8 3 1.8 0 22.2-5.6 27.7-7.6 1.2-.4.2 1.2-2.8 4.2-4.5 4.7-12.558 8.9-12.558 8.9s-9.064 3.5-9.742 3.5c-.3 0-3-2.7-6.1-6.1-8.9-9.5-16.5-12.6-25.8-10.4-6.9 1.6-12.3 5.1-20.1 13-8.9 9.2-9 9.1 3.5 8.7 9.2-.4 22.7.9 26.8 2.5 2.6 1 1.2 3.3-4.9 8.4-8.8 7.3-16.4 10.5-29.1 12.4-3 .5-3.6.9-2.8 1.9z" fill="#E45928"/>
  <path d="M72.0655 130.853V118H56.0001l16.0654 12.853zM.0001 59h72v59h-72z" fill="#3D5A8F"/>
  <path d="M44.2292 28H29v62h15.2292V40.5L91.2604 90H115V28H99.7708v48.5L52.9733 28h-8.7441z" fill="#fff"/>
  <path d="M225.747 184c1.977 17.093-7.968 21-17.796 21-9.829 0-19.28-7.326-17.797-21 1.251-11.532 7.968-21 17.797-21 9.828 0 16.463 9.477 17.796 21z" fill="#000"/>
  <ellipse cx="203" cy="175.5" rx="9" ry="10.5" fill="#fff"/>
  <path d="M283.747 184c1.977 17.093-7.968 21-17.796 21-9.829 0-19.28-7.326-17.797-21 1.251-11.532 7.968-21 17.797-21 9.828 0 16.463 9.477 17.796 21z" fill="#000"/>
  <ellipse cx="261" cy="175.5" rx="9" ry="10.5" fill="#fff"/>
</svg>
